X:1
T:III. Clair de lune
T:Claude Debussy
T:Paul Verlaine
T:III. Clair de lune
T:Copyright © 2009 by the Choral Public Domain Library (http://www.cpdl.org) Edition may be freely distributed, duplicated, performed, or recorded.
T:Copyright © 2009 by the Choral Public Domain Library (http://www.cpdl.org) Edition may be freely distributed, duplicated, performed, or recorded.
T:Copyright © 2009 by the Choral Public Domain Library (http://www.cpdl.org) Edition may be freely distributed, duplicated, performed, or recorded.
T:Copyright © 2009 by the Choral Public Domain Library (http://www.cpdl.org) Edition may be freely distributed, duplicated, performed, or recorded.
T:Copyright © 2009 by the Choral Public Domain Library (http://www.cpdl.org) Edition may be freely distributed, duplicated, performed, or recorded.
T:Copyright © 2009 by the Choral Public Domain Library (http://www.cpdl.org) Edition may be freely distributed, duplicated, performed, or recorded.
T:Copyright © 2009 by the Choral Public Domain Library (http://www.cpdl.org) Edition may be freely distributed, duplicated, performed, or recorded.
T:Copyright © 2009 by the Choral Public Domain Library (http://www.cpdl.org) Edition may be freely distributed, duplicated, performed, or recorded.
C:Claude Debussy
Z:Paul Verlaine
Z:Copyright © 2009 by the Choral Public Domain Library (http://www.cpdl.org)
Z:Edition may be freely distributed, duplicated, performed, or recorded.
%%score 1 { ( 2 3 ) | ( 4 5 ) }
L:1/8
M:9/8
K:B
V:1 treble nm="Voice" snm="Voice"
V:2 treble nm="Piano" snm="Pno."
V:3 treble 
V:4 treble 
V:5 treble 
V:1
"^Très modéré" z9 | z9 | z9 | z9 | z z (D E2 E FEF | GDG E3) =G3 | A3- AG^E =EC/D/G/c/ | %7
w: ||||Votre âme est un pa- y-|sa- ge choi- si Que|vont _ char- mants mas- ques et ber- ga-|
 ^A2 ^E z3 z3 | z3 (DDD DDD | E3)!<(! (G3 A2!<)! B |!>(! =c3- c2!>)! c)!p! .B.=G/.B/.B/.G/ | %11
w: mas- ques|Jou- ant du luth et dan-|sant et qua- si|Tris- * tes sous leurs dé- gui- se-|
 .=G/.=F/ (!tenuto!G2- G2 _E) z3 |"^Un peu animé" z3 z z/ =E/^F/^G/ AGA | AGB A3!<(! GAB!<)! | %14
w: ments fan- tas- * ques.|Tout en chan- tant sur le|mo- de mi- neur L'a- mour vain-|
 d3- dBc dBG | (e6 c3) |!mf! f=df B2 B f>df/d/ |!>(! (c6!>)! B2) z |"^dim." _B=AB A2 B =G>GA/B/ | %19
w: queur _ et la vie op- por-|tu- ne,|Ils n'ont pas l'air de croire à leur bon-|heur _|Et leur chan- son se mêle au clair de|
!>(! =d6!>)! d3 |!p!"^Tempo I" (d3 f2 d =d2 d | ^d3 B3) (G2 D | E6) =A^Bd | e3 c2 ^A =A^Bd | %24
w: lu- ne,|Au cal- me clair de|lu- ne triste et|beau, Qui fait rê-|ver les oi- seaux dans les|
 e3 c3 e3 | =f2 _e f2 e f>=de/f/ | ^f3- f z ^e fed | c3- c2 B cBA | (G6 F3) | D3 z3 z3 | z9 | z9 |] %32
w: ar- bres Et|san- glo- ter d'ex- ta- se les jets|d'eau, _ Les grands jets d'eau|svel- * tes par- mi les|mar- *|bres.|||
V:2
"^Très modéré" z/ (A/-"^très doux" a2) z/ (c/- c'2) z/ (d/- d'2) | %1
 z/ (A,/- A2) z/ (C/- c2) z/ (D/- d2) | z9 | z9 | %4
!pp! G/[Bd]/"^très doux et très expressif"G/[Bd]/D/[Bd]/ E/[_B=d][Bd][Bd]/ F/[Bd]/E/[Bd]/F/[Bd]/ | %5
 G/[=B^d]/D/[Bd]/G/[Bd]/ G/[_B=d][Bd][Bd]/ E/[Bd][Bd][Bd]/ | %6
 z/ [Ac]/"^["([Ac]/[GB]/)([GB]/"^]"[Ac]/) z/ [Ac]/"^[sim.]"[Ac]/[GB]/[GB]/[Ac]/ z/!>(! [Ac]/[GB]/[Ac]/[GB]/!>)![Ac]/ | %7
 ([_A=d]/[=D_B]/[Ad]/[DB]/[Ad]/[DB]/) ([Ad]/[DB]/[Ad]/[DB]/[Ad]/[DB]/) ([Ad]/!>(![DB]/[Ad]/[DB]/[Ad]/!>)![DB]/) | %8
 ([^^Fd]/[Dc]/[Dc]/[=Fd]/[Fd]/[Dc]/) ([Fd]/[Dc]/[Dc]/[Fd]/[Fd]/[Dc]/) ([Gd]/[DB]/[DB]/[Gd]/[Gd]/[DB]/) | %9
 ([Gd]/[EB]/[EB]/[Gd]/[Gd]/[EB]/) ([Gd]/[EB]/[EB]/[Gd]/[Gd]/[EB]/) ([Fd]/[EA]/[EA]/[Fd]/[Fd]/[DB]/) | %10
 ([_B^f]/!>(![F=d]/[Fd]/[Bf]/[Bf]/[Fd]/) ([Bf]/[Fd]/[Fd]/[Bf]/[Bf]/!>)![Fd]/)!p! ([=B=g]/"^dim."[=G_e]/[Ge]/[Bg]/[Bg]/[Ge]/) | %11
!pp! ([A^^f]/[^^F^d]/[A=f]/[=Fd]/[Af]/[Fd]/) ([Af]/[Fd]/) z ([Af]/[Fd]/) z ([Af]/[Fd]/) z | %12
!p! G,/[B,D][B,D][B,D]/ E,/[A,=D][A,D][A,D]/ F,/[A,D]/E,/[A,D]/F,/[A,D]/ | %13
 G,/[B,^D][B,D][B,D]/!<(! G,/[A,=D][A,D][A,D]/- [A,D]/[B,D][B,D][B,D]/!<)! | %14
 ^E,/[B,^D][B,D][B,D]/ F,/[B,D][B,D][B,D]/ E,/[B,D][B,D][B,D]/ | %15
!<(! E,/[B,C][B,C][B,C-]/ [B,C]/[B,C][B,C][B,C]/-!<)! [B,C]/[_B,C][B,C][B,C]/ | %16
 z/ ([F,F][F,F][F,F]/- [F,F]/[F,F][F,F][F,F]/- [F,F]/[F,F][F,F][F,F]/) | %17
 z/!>(! ([=DF][DF][DF]/- [DF]/[DF][DF][DF]/- [DF]/!>)![DF][DF][DF]/) | %18
!p!"^e molto dim." ([=DE]/[E,_B,]/) z z ([DF]/[E,B,]/) z z ([DE]/[E,B,]/) z z | %19
 [=DF]/[G,D]/ z z [D=G]/[G,D]/ z z f>ef/=g/ |!pp! ^g>ff/g/ g>ff/g/ a/b/b/a/g/a/ | %21
!pp!"^[sim.]" [^d^d'-]6 [dd']3 |!pp! [ed']6!<(! [dd']3!<)! | %23
!pp! ^g>ff/g/ g>ff/g/!<(! ^^g/a/^b/c'/b/!<)!=g/ | %24
!pp! ^g>ff/g/ g>ff/g/-!<(! g!tenuto!f!<)!!tenuto!g | %25
!pp! ([_b=d']/[=d=f]/[bd']/[df]/[=g=c']/[=c_e]/) ([bd']/[df]/[bd']/[df]/[gc']/[ce]/)!<(! ([bd']/[df]/[bd']/[df]/[bd']/!<)![df]/) | %26
"^più"!p! ([^f^d']/[^da]/[fd']/[da]/[fd']/[da]/) ([fd']/[da]/[fd']/[da]/[fd']/[da]/) ([fd']/[da]/[fd']/[da]/[fd']/[da]/) | %27
 ([fd']/[da]/[fd']/[da]/[fd']/[da]/) ([fd']/[da]/[fd']/[da]/[fd']/[da]/) ([fd']/[da]/[fd']/[da]/[fd']/[da]/) | %28
"^morendo" ([g^e']/[^ec']/[ge']/[ec']/[ge']/[ec']/) ([ge']/[ec']/[ge']/[ec']/[ge']/[ec']/) ([bf']/[fd']/[bf']/[fd']/[bf']/[fd']/) | %29
 ([bg']/[gd']/[bg']/[gd']/[bg']/[gd']/) (([bg']/[gd']/"^m.g."[bg']/[gd']/[bg']/[gd']/)) (([bg']/[gd']/[bg']/[gd']/[bg']/[gd']/)) | %30
 ([bg']/[gd']/[bg']/[gd']/[bg']/[gd']/ [bg']"^m.g."[gd'][bg'] [gd'][bg'][gd'] | [bg']6) z3 |] %32
V:3
 x A2 x c2 x d2 | x A,2 x C2 x D2 | x9 | x9 | (G2 D E2 E FEF | GDG =G3 E3) | x9 | x9 | x9 | x9 | %10
 x9 | x9 | (G,2 D, E,2 E, F,E,F,) | (G,D,G, E,6) | (^E,3 F,3 E,3 | =E,3) E,3 E,3 | %16
 (CB,C =D3) CB,D | x9 | (=D>=CC/D/) (D>CC/D/) (D>CC/D/) | F>EE/F/ =G>FF/G/ f/[_B=d]/- [Bd]2 | %20
 [^d^d']6 !tenuto![=d=d']3 | (g>ff/g/) (g>ff/g/-) g!tenuto!f!tenuto!g | %22
 g>ff/g/ g>ff/g/ ^^g/a/^b/c'/b/=g/ | [=ed']6 [=d=d']3 | [=ed']6 [ed']3 | x9 | x9 | x9 | x9 | %29
 z3 z (^e/d/d/e/- e3) | z3 z (^e/d/d/e/- e)(de | [Gd]6) x3 |] %32
V:4
!pp! d>cc/d/ A>GG/A/ !tenuto!c3 | D>CC/D/ A,>G,G,/A,/ !tenuto!C3 | %2
 D,/F,/G,/[I:staff -1]A,/C/F/ D/[I:staff +1]F,/G,/A,/[I:staff -1]C/F/ D/F,/G,/A,/C/F/ | %3
[I:staff +1] D,/F,/G,/[I:staff -1]A,/C/F/ D/[I:staff +1]F,/G,/A,/[I:staff -1]C/F/ D/G,/A,/C/D/F/ | %4
[I:staff +1] G,,, z z z3 z3 | z9 |!<(! [G,D]2 [CE] [=D^E][^DF][=D=E]!<)! E2 ^D/E/ | %7
 [=F,_B,=F]2 !tenuto![_B,,F,]- !tenuto![B,,F,]!tenuto![B,F].[B,,F,] !tenuto![B,F].[B,,F,].B, | %8
 =B,>A,A,/B,/ B,>A,A,/B,/ A,/G,/G,/A,/A,/G,/ | B,>!<(!A,A,/B,/ B,>A,A,/B,/ A,/G,/G,/A,/A,/!<)!G,/ | %10
 !>!=C6 B,=G,_E, | [^D,,A,,]2 [D,A,]- [D,A,]!tenuto![DA][D,A,] !tenuto![DA][D,A,]D, | G,,6- G,,3 | %13
 G,,6- G,,3- | G,,3 G,3 G,,3 | z z/ =A,/A,/!courtesy!=G,/- G,>A,A,/G,/- G,>A,A,/G,/ | %16
!mf! =A,, .=D,,2 G,, D,,2 A,, .D,,2 | F,3 G,3 B,3 | z =G,,=C,, z G,,C,, z G,,C,, | %19
 z =G,,=C,, z G,,C,,[K:treble] z =GE | %20
 z/ !tenuto![D^GB]!tenuto![DGB][DGB]/- [DGB]/[DGB][DGB][DGB]/ z/ [=DGB][DGB][DGB]/ | %21
 z/ !tenuto![^DGB]!tenuto![DGB]!tenuto![DGB]/- [DGB]/[DGB][DGB][DGB]/- [DGB]/[DGB][DGB][DGB]/ | %22
 F,,,/F,,/C,/E,/F,/A,/ C/[K:treble]E/F/A/c [^B,D^E^^G^B]3 | %23
 F,,,/F,,/C,/E,/F,/A,/ C/[K:treble]E/F/A/c [^B,D^E^^G^B]3 | %24
 F,,,/F,,/C,/E,/F,/A,/ C/[K:treble]E/F/A/c- cAF | [_B,=D=F_B]2 [=C_E=G] [B,DFB]2 [CEG] [B,DFB]3 | %26
 !tenuto!.[^D,,,^D,,]2 [A,DFA]- [A,DFA]2 A,,- A,,2 D,,- | [D,,,D,,]3[K:treble] A,3 D3 | %28
 [C^EGc]6 !tenuto![B,DFB]3 | [G,,,D,,]2 [D,G,B,D]- [D,G,B,D]3 D,,3- | %30
 .[G,,,D,,] z [D,G,B,D]- [D,G,B,D]3 z3 | z9 |] %32
V:5
 x6 G>FF/G/ | x6 G,>F,F,/G,/ | .D,3 .A,,3 .D,,3 | .D,3 .A,,3 .D,,3 | x9 | x9 | x6 C2 G, | x9 | %8
 D,,6 G,,3 | C,3 E,3 F,2 B,, | =D,,6 =G,,3 | x9 | x9 | x9 | x9 | =G,,6 F,,3 | x9 | %17
 G,, =D,,2- D,,6 | x9 | x6[K:treble] x3 | F,6- F,3 | F,6- F,3 | F,,,4[K:treble] x5 | %23
 F,,,4[K:treble] x5 | F,,,4[K:treble] x5 | x9 | x9 | x5/2[K:treble] x13/2 | x9 | x9 | x9 | x9 |] %32

